X:1
T:Dayspring (Freylinghausen), 77.77.73
T:Dayspring (Freylinghausen), 77.77.73
T:Johann Anastasius Freylinghausen, 1704
T:Public Domain Courtesy of the Cyber Hymnal™
C:Johann Anastasius Freylinghausen, 1704
Z:Public Domain
Z:Courtesy of the Cyber Hymnal™
%%score ( 1 2 ) ( 3 4 )
L:1/8
Q:1/4=108
M:2/4
K:Eb
V:1 treble 
V:2 treble 
V:3 bass 
V:4 bass 
V:1
|: [B,G]2 E2 | [EB]2 [Ec]2 | A3 z G | [EG]4 | [Ge]2 [Gd]2 | [Gc]2 [Fd]2 | [Fe]2 [Fd]2 | c4 | %8
 [DB]4 :| [EB]2 [_DB]2 | c2 [EB]2 | A2 [EG]2 | [DF]4 | [EG]4 | F4 | E4 |] %16
V:2
|: x2 E2 | x4 | E2 D2 x | x4 | x4 | x4 | x4 | (G2 FE) | x4 :| x4 | (CD) x2 | (EF) x2 | x4 | x4 | %14
 (E2 D2) | E4 |] %16
V:3
|: [E,G,]2 [C,G,]2 | [G,,B,]2 (A,G,) | [B,,F,]2 [B,,B,]2 x | [E,B,]4 | [C,C]2 [G,B,]2 | %5
 (G,=A,) [D,B,]2 | [C,=A,]2 [B,,B,]2 | [E,B,]2 [F,=A,]2 | [B,,F,]4 :| [E,G,]2 [G,,E,]2 | %10
 (E,F,) [G,,G,]2 | ([C,A,][D,F,]) (G,A,) | [B,,B,]4 | [E,B,]4 | (B,3 A,) | [E,,E,G,]4 |] %16
V:4
|: x4 | x2 A,,2 | x5 | x4 | x4 | E,2 x2 | x4 | x4 | x4 :| x4 | A,,2 x2 | x2 E,2 | x4 | x4 | B,,4 | %15
 x4 |] %16

